!!!OTL: ACH MUTTER S HAT FREIER HIER
!!!ARE: Europa, Mitteleuropa, Deutschland, Schlesien, Liegnitz
!!!SCT: E0837
!!!YEM: Copyright 1995, estate of Helmut Schaffrath.
**kern
*ICvox
*Ivox
*M3/8
*k[]
*C:
{8G
=1
8c
8c
8e
=2
8c
8c
8c
=3
8G
8G
8G
=4
4c}
{8G
=5
8c
8c
8e
=6
8c
8c
8c
=7
8G
8G
8G
=8
4c}
{8G
=9
8d
8d
8d
=10
8c
8A
8G
=11
8e
8e
8e
=12
4d}
{8g
=13
8d
8d
8d
=14
8e
8e
8e
=15
8A
8A
8B
=16
4c}
==
!!!AGN: Hochzeits -, Ehestands - Lied
!!!ONB: ESAC (Essen Associative Code) Database: ERK2
!!!AMT: simple triple
!!!AIN: vox
!!!EED: Helmut Schaffrath
!!!EEV: 1.0
*-
